lightbulb-cfl-off.svg

<svg fill="currentColor" viewBox="0 0 24 24"><path d="M14 4.47c0-.91-.37-1.77-1-2.42.17-.05.33-.05.5-.05A2.5 2.5 0 0 1 16 4.5V14h1v1.18l-3-3V4.47m-4 .03c0-.28.22-.5.5-.5s.5.22.5.5v4.68l2 2V4.5a2.5 2.5 0 0 0-5 0v1.68l2 2zM9 21c0 .55.45 1 1 1h4c.55 0 1-.45 1-1v-1H9zm11-.28L18.73 22l-4-4H8c-.55 0-1-.45-1-1v-3h1v-2.73l-6-6L3.28 4z"/></svg>

<svg  viewBox="0 0 24 24" fill="currentColor"><path  d="M14 4.47C14 3.56 13.63 2.7 13 2.05C13.17 2 13.33 2 13.5 2C14.88 2 16 3.12 16 4.5V14H17V15.18L14 12.18V4.5L14 4.47M10 4.5C10 4.22 10.22 4 10.5 4S11 4.22 11 4.5V9.18L13 11.18V4.5C13 3.12 11.88 2 10.5 2S8 3.12 8 4.5V6.18L10 8.18V4.5M9 21C9 21.55 9.45 22 10 22H14C14.55 22 15 21.55 15 21V20H9V21M20 20.72L18.73 22L14.73 18H8C7.45 18 7 17.55 7 17V14H8V11.27L2 5.27L3.28 4L20 20.72Z"/></svg>
